Rowaita-Dark/24x24/actions/view-time-schedule-baselined-remove.svg

<svg xmlns="http://www.w3.org/2000/svg" width="24" height="24" viewBox="0 0 24 24">
 <defs>
  <style id="current-color-scheme" type="text/css">
   .ColorScheme-Text { color:#dfdfdf; } .ColorScheme-Highlight { color:#4285f4; }
  </style>
 </defs>
 <path style="fill:currentColor" class="ColorScheme-Text" d="M 2.0078125 1 C -0.2421875 1 0.0078125 3 0.0078125 3 L 0.0078125 15 L 8.0078125 15 L 8.0078125 13 L 2.0078125 13 L 2.0078125 6 L 6.0078125 6 L 6.0078125 4 L 2.0078125 4 L 2.0078125 3 L 12.007812 3 L 12.007812 7 L 6.0078125 7 L 6.0078125 9 L 14.007812 9 L 14.007812 3 C 14.007812 1 12.007812 1 12.007812 1 L 2.0078125 1 z M 4.0078125 10 L 4.0078125 12 L 8.0078125 12 L 8.0078125 10 L 4.0078125 10 z M 11.414062 10.34375 L 10 11.757812 L 11.414062 13.171875 L 10 14.585938 L 11.414062 16 L 12.828125 14.585938 L 14.242188 16 L 15.65625 14.585938 L 14.242188 13.171875 L 15.65625 11.757812 L 14.242188 10.34375 L 12.828125 11.757812 L 11.414062 10.34375 z" transform="translate(4 4)"/>
</svg>

<?xml version='1.0' encoding='ASCII' standalone='yes'?>
<svg xmlns="http://www.w3.org/2000/svg" xmlns:xlink="http://www.w3.org/1999/xlink" version="1.1" width="24px" height="24px">
  <g transform="translate(4.0, 4.0) scale(1 1) ">
    <sodipodi:namedview xmlns:sodipodi="http://sodipodi.sourceforge.net/DTD/sodipodi-0.dtd" xmlns:inkscape="http://www.inkscape.org/namespaces/inkscape" id="namedview9" pagecolor="#ffffff" bordercolor="#000000" borderopacity="0.25" inkscape:showpageshadow="2" inkscape:pageopacity="0.0" inkscape:pagecheckerboard="0" inkscape:deskcolor="#d1d1d1" showgrid="false" inkscape:zoom="22.693708" inkscape:cx="-8.1520393" inkscape:cy="10.245131" inkscape:current-layer="svg7"/>
    <defs id="defs3">
      <style id="current-color-scheme" type="text/css">
   .ColorScheme-Text { color:#444444; } .ColorScheme-Highlight { color:#4285f4; }
  </style>
      <style id="current-color-scheme-3" type="text/css">
   .ColorScheme-Text { color:#444444; } .ColorScheme-Highlight { color:#4285f4; }
  </style>
    </defs>
    <path style="fill:#dfdfdf;fill-opacity:1" d="m 4.0078125,10 v 2 h 4 v -2 z" id="path310"/>
    <path style="fill:#dfdfdf;fill-opacity:1" d="m 2.0078125,1 c -2.25,0 -2,2 -2,2 v 12 h 8 v -2 h -6 V 6 h 4 V 4 h -4 V 3 H 12.007812 V 7 H 6.0078125 V 9 H 14.007812 V 3 c 0,-2 -2,-2 -2,-2 z" id="path5"/>
    <path style="fill:#dfdfdf;fill-opacity:1" d="m 10.8,9.8 c -0.265624,0 -0.51953,0.105469 -0.707031,0.292969 -0.3906253,0.390625 -0.3906253,1.023437 0,1.414062 L 11.385938,12.8 10.092969,14.092969 c -0.3906253,0.390625 -0.3906253,1.023437 0,1.414062 0.390626,0.390625 1.023437,0.390625 1.414062,0 L 12.8,14.214062 l 1.292969,1.292969 c 0.390625,0.390625 1.023437,0.390625 1.414062,0 0.390625,-0.390625 0.390625,-1.023437 0,-1.414062 L 14.214062,12.8 15.507031,11.507031 c 0.390625,-0.390625 0.390625,-1.023437 0,-1.414062 C 15.319531,9.905469 15.065625,9.8 14.8,9.8 c -0.265625,0 -0.519531,0.105469 -0.707031,0.292969 L 12.8,11.385938 11.507031,10.092969 C 11.319531,9.905469 11.065625,9.8 10.8,9.8 Z" id="path4"/>
  </g>
</svg>
